X:1014
L:1/16
M:2/4
K:F
 FG |:"F" A2A2 c2c2 |"C7" B2B2 G2GA | B2B2 d2d2 |"F" c2c2 A2AB | c2fe f2A2 |"Gm" G2d^c d2d2 | 
"C7" c2cd cBAG |1"F" F6 FG :|2"F" F6 FA |:[K:C]"G7" G2G2 ^FGAB |"C" c2c2 cedc |"G" BdcB"F" AcBA | 
"C" GAGF E2EA |"G7" G2G2 ^FGAB |"C" c2c2 cedc |"G7" Bcde f2AB |1"C" c6 FA :|2 
"C" c6 G"_>Teil A" F ||[K:Bb] d2 |:"F7" e2>d2 c2e2 |"Bb" d2>c2 B2B2 |"F7" A2>G2 FGFE | 
"Bb" (F4 D2)d2 |"F7" e2>d2 c2e2 |"Bb" d2>c2 B2B2 |"F7" A2>G2 FGAc |1"Bb" B6 d2 :|2"Bb" B6 z2 |]

